X:96
T:The wee wedding
Z:Jack Campin - http://www.campin.me.uk
S:Blaikie MS (NLS MS.1578) p28, Blaikie #90
N:Highland Harry
M:C
L:1/8
V:1 midi program 1 74
V:2 midi program 1 46 bass middle = d transpose -24
Q:1/4=96
N:bass part leaves final crotchets undotted
K:G Minor
[V:1] F| D>G````G>G     A>G````G>G    | A>G````Ac     d3
[V:2] z|[g2G2] [g2G2]  [g2G2] [g2G2]  |[f2F2] [f2F2] [b2B2] z
[V:1] c| e>d````d>c     A2     F>G    | AG`````GG     G3     |]
[V:2] z|[b2B2] [a2A2]  [f2F2] [fF][eE]|[d2D2] [g2G2] [g3G3]  |]
W:Transcription (c) Jack Campin 2009, no mirroring or republication without permission

